svg/fluentui-system-icons/ic_fluent_number_circle_2_20_filled.svg

<svg width="20" height="20" viewBox="0 0 20 20" fill="none" xmlns="http://www.w3.org/2000/svg">
<path d="M2 10C2 5.58172 5.58172 2 10 2C14.4183 2 18 5.58172 18 10C18 14.4183 14.4183 18 10 18C5.58172 18 2 14.4183 2 10ZM8.40025 7.3017L8.40255 7.29875C8.40552 7.295 8.41116 7.28796 8.41941 7.27812C8.43594 7.25838 8.46274 7.2276 8.49928 7.1894C8.57278 7.11259 8.68323 7.00837 8.82629 6.90419C9.11431 6.69446 9.51265 6.5 9.99959 6.5C10.8279 6.5 11.4994 7.17152 11.4996 8.00008C11.4997 8.46346 11.3253 8.77678 11.0288 9.06091C10.7589 9.31961 10.4156 9.53105 10.0036 9.78471C9.91707 9.838 9.82749 9.89316 9.73494 9.95101C9.2295 10.2669 8.66297 10.6498 8.22963 11.2095C7.7843 11.7848 7.5 12.5184 7.5 13.5C7.5 13.7761 7.72386 14 8 14H12C12.2761 14 12.5 13.7761 12.5 13.5C12.5 13.2239 12.2761 13 12 13H8.53386C8.6059 12.4965 8.78704 12.1231 9.02036 11.8217C9.33701 11.4127 9.77045 11.1081 10.265 10.799C10.3407 10.7516 10.4191 10.7036 10.499 10.6546C10.9117 10.4015 11.3662 10.1227 11.7208 9.78284C12.1743 9.34822 12.4997 8.78654 12.4996 7.99992C12.4994 6.61935 11.3804 5.5 9.99959 5.5C9.23694 5.5 8.63625 5.80554 8.23763 6.09581C8.03738 6.24163 7.88261 6.38741 7.77672 6.4981C7.72357 6.55365 7.68213 6.60099 7.65285 6.63595C7.63556 6.65658 7.61855 6.67748 7.60231 6.69895L7.60123 6.70039C7.43576 6.92147 7.48084 7.23482 7.70192 7.40029C7.9223 7.56524 8.23437 7.52097 8.40025 7.3017Z" fill="#212121"/>
</svg>

<svg xmlns="http://www.w3.org/2000/svg" width="20" height="20"><path d="M2 10a8 8 0 1 1 16 0 8 8 0 0 1-16 0Zm6.4-2.698.003-.003a2.469 2.469 0 0 1 .424-.395A1.99 1.99 0 0 1 10 6.5 1.5 1.5 0 0 1 11.5 8c0 .463-.175.777-.471 1.06-.27.26-.613.471-1.025.725l-.27.166c-.505.316-1.071.699-1.504 1.258-.446.576-.73 1.31-.73 2.291a.5.5 0 0 0 .5.5h4a.5.5 0 0 0 0-1H8.534c.072-.504.253-.877.486-1.178.317-.41.75-.714 1.245-1.023l.234-.144c.413-.253.867-.532 1.222-.872.453-.435.779-.996.779-1.783A2.5 2.5 0 0 0 10 5.5a2.99 2.99 0 0 0-1.762.596 3.466 3.466 0 0 0-.585.54c-.017.02-.034.041-.05.063L7.6 6.7a.5.5 0 0 0 .8.602Z"/></svg>
